logo.svg

<?xml version="1.0" encoding="UTF-8" standalone="no"?>
<svg width="120px" height="20px" viewBox="0 0 120 20" version="1.1" xmlns="http://www.w3.org/2000/svg" xmlns:xlink="http://www.w3.org/1999/xlink">
    <!-- Generator: Sketch 3.6.1 (26313) - http://www.bohemiancoding.com/sketch -->
    <title>logo</title>
    <desc>Created with Sketch.</desc>
    <defs></defs>
    <g id="Page-1" stroke="none" stroke-width="1" fill="none" fill-rule="evenodd">
        <g id="logo" fill="#FFFFFF">
            <path d="M4.34019512,9.78673171 C4.28692683,10.0516098 4.25765854,10.3243902 4.25765854,10.601561 C4.25765854,13.2108293 6.70214634,15.3242927 9.71795122,15.3242927 C12.7334634,15.3242927 15.1782439,13.2105366 15.1782439,10.601561 C15.1782439,10.3243902 15.1486829,10.0516098 15.0954146,9.78673171 C13.9618537,8.62478049 11.9780488,7.85239024 9.71795122,7.85239024 C7.45756098,7.85239024 5.47346341,8.62478049 4.34019512,9.78673171 L4.34019512,9.78673171 Z M12.3043902,11.0136585 C12.3043902,12.4425366 11.1465366,13.5998049 9.71795122,13.5998049 C8.28965854,13.5998049 7.1315122,12.4425366 7.1315122,11.0136585 C7.1315122,10.656 7.20409756,10.3153171 7.33580488,10.0050732 C7.48273171,10.4256585 7.88253659,10.7262439 8.35287805,10.7262439 C8.9484878,10.7262439 9.43053659,10.2444878 9.43053659,9.64858537 C9.43053659,9.1782439 9.12936585,8.77843902 8.70936585,8.63121951 C9.01931707,8.50009756 9.36029268,8.42692683 9.71795122,8.42692683 C11.1462439,8.42721951 12.3043902,9.58565854 12.3043902,11.0136585 L12.3043902,11.0136585 Z" id="Shape"></path>
            <path d="M9.71795122,0 C3.4902439,2.27707317 -0.969073171,9.38019512 0.181170732,16.554439 C0.181170732,16.554439 3.90292683,19.902439 9.71765854,19.902439 C15.5323902,19.902439 19.2541463,16.554439 19.2541463,16.554439 C20.4046829,9.38019512 15.9453659,2.27707317 9.71795122,0 L9.71795122,0 Z M17.9312195,15.7557073 C17.9312195,15.7557073 16.5661463,16.9138537 14.5068293,17.5571707 C14.4283902,17.5820488 14.3367805,17.5838049 14.2548293,17.5358049 C14.1345366,17.4658537 14.1023415,17.3247805 14.1737561,17.2012683 C14.1854634,17.1813659 14.2188293,17.1412683 14.2507317,17.1149268 C14.7450732,16.7083902 15.1586341,16.2020488 15.497561,15.6149268 C16.1042927,14.5636098 16.326439,13.3969756 16.2076098,12.2754146 L16.2067317,12.2730732 C15.8543415,14.0859512 14.748,15.7419512 13.0232195,16.7382439 C9.3564878,18.8546341 4.73531707,18.2985366 1.50526829,15.7562927 C1.50526829,15.7562927 1.1844878,13.9946341 1.65687805,11.8896585 C1.67473171,11.8097561 1.71892683,11.7292683 1.8017561,11.6827317 C1.92263415,11.6130732 2.0604878,11.6552195 2.13160976,11.7793171 C2.14360976,11.7992195 2.16146341,11.8483902 2.16819512,11.8890732 C2.27268293,12.5200976 2.50419512,13.1312195 2.84341463,13.7189268 C3.45043902,14.7699512 4.35014634,15.545561 5.38009756,16.0036098 C4.84185366,15.5356098 4.37034146,14.9716098 3.99365854,14.3186341 C3.35853659,13.2187317 3.07609756,12.012878 3.11004878,10.8301463 C3.18936585,6.67258537 5.95580488,3.0342439 9.71765854,1.53014634 C9.71765854,1.53014634 11.4032195,2.13365854 12.990439,3.59473171 C13.0510244,3.65063415 13.0978537,3.72936585 13.097561,3.82419512 C13.0966829,3.9635122 12.9916098,4.06185366 12.8484878,4.06185366 C12.8250732,4.06185366 12.7738537,4.05278049 12.7349268,4.03873171 C12.1358049,3.81336585 11.4910244,3.708 10.8125854,3.708 C9.59882927,3.708 8.47697561,4.09960976 7.56585366,4.76312195 L7.56468293,4.76429268 C9.47239024,4.10429268 11.549561,4.36917073 13.212,5.4017561 C16.752,7.55473171 18.5080976,11.7576585 17.9312195,15.7557073 L17.9312195,15.7557073 Z" id="Shape"></path>
            <path d="M26.2235122,15.906439 L23.4834146,15.906439 L23.4834146,4.62995122 L26.2235122,4.62995122 L26.2235122,15.906439 L26.2235122,15.906439 Z" id="Shape"></path>
            <path d="M37.3410732,5.05346341 L37.1467317,7.43970732 C36.4036098,6.96878049 35.5082927,6.73287805 34.4596098,6.73287805 C33.4109268,6.73287805 32.532878,7.06009756 31.8257561,7.71395122 C31.1186341,8.3675122 30.7656585,9.21921951 30.7656585,10.2679024 C30.7656585,11.3171707 31.1244878,12.1650732 31.8439024,12.8130732 C32.562439,13.4613659 33.4633171,13.7853659 34.548,13.7853659 C35.7146341,13.7853659 36.6395122,13.5617561 37.3226341,13.1136585 L37.092878,15.5707317 C36.4091707,15.9714146 35.4251707,16.1721951 34.1414634,16.1721951 C33.3872195,16.1721951 32.6476098,16.0419512 31.9226341,15.7829268 C31.1985366,15.5239024 30.5411707,15.1557073 29.952,14.6783415 C29.363122,14.2006829 28.8883902,13.5793171 28.529561,12.8133659 C28.1698537,12.0474146 27.9901463,11.1995122 27.9901463,10.2681951 C27.9901463,9.03102439 28.3021463,7.95307317 28.9273171,7.0337561 C29.5516098,6.11473171 30.3201951,5.44009756 31.2336585,5.00985366 C32.1462439,4.57990244 33.1159024,4.36478049 34.1414634,4.36478049 C35.4845854,4.3644878 36.551122,4.59395122 37.3410732,5.05346341 L37.3410732,5.05346341 Z" id="Shape"></path>
            <path d="M50.6142439,10.2503415 C50.6142439,12.0058537 50.010439,13.4312195 48.8028293,14.5273171 C47.5946341,15.6234146 46.1719024,16.1716098 44.5343415,16.1716098 C42.9081951,16.1716098 41.4907317,15.6234146 40.283122,14.5273171 C39.0755122,13.4312195 38.4717073,12.0058537 38.4717073,10.2503415 C38.4717073,8.51795122 39.0755122,7.104 40.283122,6.00790244 C41.4907317,4.91239024 42.9081951,4.3644878 44.5343415,4.3644878 C45.5830244,4.3644878 46.5667317,4.60039024 47.4857561,5.07160976 C48.4050732,5.54253659 49.1558049,6.23531707 49.739122,7.14878049 C50.322439,8.06107317 50.6142439,9.09541463 50.6142439,10.2503415 L50.6142439,10.2503415 Z M47.8390244,10.2503415 C47.8390244,9.23707317 47.5097561,8.40263415 46.8494634,7.74907317 C46.1891707,7.0955122 45.4182439,6.768 44.5343415,6.768 C43.650439,6.768 42.881561,7.09521951 42.228,7.74907317 C41.5732683,8.40263415 41.2466341,9.23707317 41.2466341,10.2503415 C41.2466341,11.2750244 41.5732683,12.1147317 42.228,12.768878 C42.881561,13.422439 43.650439,13.7499512 44.5343415,13.7499512 C45.4182439,13.7499512 46.1891707,13.4227317 46.8494634,12.768878 C47.5097561,12.1150244 47.8390244,11.2753171 47.8390244,10.2503415 L47.8390244,10.2503415 Z" id="Shape"></path>
            <path d="M62.7927805,16.0302439 L61.4139512,16.0302439 L57.030439,11.2223415 C56.4178537,10.5506341 55.7165854,9.72643902 54.9266341,8.748 L54.8915122,8.76556098 C54.9266341,9.5675122 54.9447805,10.3565854 54.9447805,11.1339512 L54.9447805,15.9067317 L52.205561,15.9067317 L52.205561,4.62995122 L54.4150244,4.62995122 L58.2324878,8.83668293 C58.9510244,9.62546341 59.5636098,10.344878 60.0705366,10.992878 L60.1059512,10.9747317 C60.0705366,10.3033171 60.0526829,9.60263415 60.0526829,8.87180488 L60.0526829,4.62995122 L62.7924878,4.62995122 L62.7924878,16.0302439 L62.7927805,16.0302439 Z" id="Shape"></path>
            <path d="M71.4705366,6.87453659 L67.4762927,6.87453659 L67.4762927,9.11912195 L70.7637073,9.11912195 L70.7637073,11.399122 L67.4762927,11.399122 L67.4762927,15.9061463 L64.7370732,15.9061463 L64.7370732,4.62995122 L71.4708293,4.62995122 L71.4708293,6.87453659 L71.4705366,6.87453659 Z" id="Shape"></path>
            <path d="M75.6237073,15.906439 L72.8836098,15.906439 L72.8836098,4.62995122 L75.6237073,4.62995122 L75.6237073,15.906439 L75.6237073,15.906439 Z" id="Shape"></path>
            <path d="M88.332,16.0302439 L86.9534634,16.0302439 L82.5696585,11.2223415 C81.9567805,10.5506341 81.2560976,9.72643902 80.4658537,8.748 L80.4310244,8.76556098 C80.4658537,9.5675122 80.4842927,10.3565854 80.4842927,11.1339512 L80.4842927,15.9067317 L77.7447805,15.9067317 L77.7447805,4.62995122 L79.9542439,4.62995122 L83.7717073,8.83668293 C84.4902439,9.62546341 85.103122,10.344878 85.6100488,10.992878 L85.6451707,10.9747317 C85.6100488,10.3033171 85.5916098,9.60263415 85.5916098,8.87180488 L85.5916098,4.62995122 L88.3317073,4.62995122 L88.3317073,16.0302439 L88.332,16.0302439 Z" id="Shape"></path>
            <path d="M98.3622439,6.16770732 C99.5347317,7.19239024 100.121561,8.55980488 100.121561,10.2679024 C100.121561,11.9765854 99.5347317,13.343122 98.3622439,14.3683902 C97.1897561,15.3933659 95.760878,15.906439 94.0764878,15.906439 L90.2762927,15.906439 L90.2762927,4.62995122 L94.0764878,4.62995122 C95.760878,4.62995122 97.1897561,5.14214634 98.3622439,6.16770732 L98.3622439,6.16770732 Z M96.3477073,12.6980488 C97.0366829,12.1270244 97.3811707,11.3171707 97.3811707,10.2679024 C97.3811707,9.21921951 97.0363902,8.40936585 96.3477073,7.8377561 C95.6581463,7.26673171 94.7950244,6.9804878 93.7577561,6.9804878 L92.9098537,6.9804878 L92.9098537,13.5553171 L93.7577561,13.5553171 C94.7950244,13.5550244 95.6581463,13.2696585 96.3477073,12.6980488 L96.3477073,12.6980488 Z" id="Shape"></path>
            <path d="M108.781463,15.906439 L101.711415,15.906439 L101.711415,4.62995122 L108.286537,4.62995122 L108.286537,6.87453659 L104.450927,6.87453659 L104.450927,9.11912195 L107.579415,9.11912195 L107.579415,11.399122 L104.450927,11.399122 L104.450927,13.661561 L108.781756,13.661561 L108.781756,15.906439 L108.781463,15.906439 Z" id="Shape"></path>
            <path d="M119.810341,15.906439 L116.752098,15.906439 L113.712293,11.4696585 L112.740585,11.4696585 L112.740585,15.906439 L110.107024,15.906439 L110.107024,4.62995122 L114.313171,4.62995122 C115.314439,4.62995122 116.172,4.94195122 116.885268,5.5662439 C117.598244,6.19141463 117.953854,7.01560976 117.953854,8.04117073 C117.953854,8.67687805 117.789073,9.24878049 117.45922,9.75570732 C117.129366,10.2620488 116.717268,10.6331707 116.222049,10.8690732 L119.810341,15.906439 L119.810341,15.906439 Z M115.320878,8.04117073 C115.320878,7.6404878 115.181854,7.33141463 114.904976,7.11278049 C114.62839,6.89473171 114.295317,6.78643902 113.906927,6.78643902 L112.740585,6.78643902 L112.740585,9.3137561 L113.906927,9.3137561 C114.295317,9.3137561 114.62839,9.20517073 114.904976,8.98653659 C115.182146,8.76878049 115.320878,8.45326829 115.320878,8.04117073 L115.320878,8.04117073 Z" id="Shape"></path>
        </g>
    </g>
</svg>

<svg width="120" height="20" viewBox="0 0 120 20" xmlns="http://www.w3.org/2000/svg"><title>logo</title><g fill="#FFF" fill-rule="evenodd"><path d="M4.34 9.787a4.132 4.132 0 0 0-.082.815c0 2.609 2.444 4.722 5.46 4.722 3.015 0 5.46-2.113 5.46-4.722 0-.278-.03-.55-.083-.815-1.133-1.162-3.117-1.935-5.377-1.935s-4.245.773-5.378 1.935zm7.964 1.227a2.586 2.586 0 1 1-4.968-1.009A1.077 1.077 0 0 0 9.43 9.65c0-.47-.302-.87-.722-1.018a2.587 2.587 0 0 1 3.595 2.382z"/><path d="M9.718 0C3.49 2.277-.969 9.38.181 16.554c0 0 3.722 3.348 9.537 3.348 5.814 0 9.536-3.348 9.536-3.348C20.404 9.38 15.945 2.277 9.718 0zm8.213 15.756s-1.365 1.158-3.424 1.801a.308.308 0 0 1-.252-.021c-.12-.07-.153-.211-.081-.335a.41.41 0 0 1 .077-.086 5.44 5.44 0 0 0 1.247-1.5 5.499 5.499 0 0 0 .71-3.34l-.001-.002a6.595 6.595 0 0 1-3.184 4.465c-3.667 2.117-8.288 1.56-11.518-.982 0 0-.32-1.761.152-3.866a.307.307 0 0 1 .145-.207c.12-.07.258-.028.33.096.012.02.03.07.036.11.105.631.336 1.242.675 1.83a5.502 5.502 0 0 0 2.537 2.285 6.595 6.595 0 0 1-1.386-1.685 6.577 6.577 0 0 1-.884-3.489c.08-4.157 2.846-7.796 6.608-9.3 0 0 1.685.604 3.272 2.065.061.056.108.134.108.23-.001.139-.106.237-.25.237a.416.416 0 0 1-.113-.023 5.427 5.427 0 0 0-1.922-.331 5.496 5.496 0 0 0-3.247 1.055l-.001.001a6.618 6.618 0 0 1 5.647.638c3.54 2.153 5.296 6.356 4.72 10.354zM26.224 15.906h-2.74V4.63h2.74v11.276zM37.341 5.053l-.194 2.387c-.743-.471-1.639-.707-2.687-.707-1.05 0-1.927.327-2.634.981-.707.654-1.06 1.505-1.06 2.554 0 1.05.358 1.897 1.078 2.545.718.648 1.62.972 2.704.972 1.167 0 2.092-.223 2.775-.671l-.23 2.457c-.684.4-1.668.601-2.952.601a6.55 6.55 0 0 1-2.218-.39 6.682 6.682 0 0 1-1.971-1.104c-.589-.477-1.064-1.099-1.422-1.865-.36-.766-.54-1.613-.54-2.545 0-1.237.312-2.315.937-3.234.625-.92 1.393-1.594 2.307-2.024a6.74 6.74 0 0 1 2.907-.645c1.344 0 2.41.229 3.2.688zM50.614 10.25c0 1.756-.604 3.181-1.811 4.277-1.208 1.096-2.631 1.645-4.269 1.645-1.626 0-3.043-.549-4.25-1.645-1.208-1.096-1.812-2.521-1.812-4.277 0-1.732.604-3.146 1.811-4.242 1.208-1.096 2.625-1.644 4.251-1.644 1.049 0 2.033.236 2.952.708.92.47 1.67 1.163 2.253 2.077.583.912.875 1.946.875 3.101zm-2.775 0c0-1.013-.33-1.847-.99-2.5-.66-.654-1.43-.982-2.315-.982-.884 0-1.652.327-2.306.981-.655.654-.981 1.488-.981 2.501 0 1.025.326 1.865.981 2.519.654.653 1.422.981 2.306.981.884 0 1.655-.327 2.315-.981.66-.654.99-1.494.99-2.519zM62.793 16.03h-1.379l-4.384-4.808a54.971 54.971 0 0 1-2.103-2.474l-.035.018c.035.802.053 1.59.053 2.368v4.773h-2.74V4.63h2.21l3.817 4.207a38.238 38.238 0 0 1 1.839 2.156l.035-.018a39.955 39.955 0 0 1-.053-2.103V4.63h2.74v11.4zM71.47 6.875h-3.994v2.244h3.288v2.28h-3.288v4.507h-2.739V4.63h6.734v2.245zM75.624 15.906h-2.74V4.63h2.74v11.276zM88.332 16.03h-1.379l-4.383-4.808a54.971 54.971 0 0 1-2.104-2.474l-.035.018c.035.802.053 1.59.053 2.368v4.773h-2.74V4.63h2.21l3.818 4.207a38.254 38.254 0 0 1 1.838 2.156l.035-.018a40.266 40.266 0 0 1-.053-2.103V4.63h2.74v11.4zM98.362 6.168c1.173 1.024 1.76 2.392 1.76 4.1 0 1.709-.587 3.075-1.76 4.1-1.172 1.025-2.601 1.538-4.286 1.538h-3.8V4.63h3.8c1.685 0 3.114.512 4.286 1.538zm-2.014 6.53c.689-.571 1.033-1.38 1.033-2.43 0-1.049-.345-1.859-1.033-2.43-.69-.571-1.553-.858-2.59-.858h-.848v6.575h.848c1.037 0 1.9-.285 2.59-.857zM108.781 15.906h-7.07V4.63h6.576v2.245h-3.836v2.244h3.128v2.28h-3.128v2.263h4.33v2.244zM119.81 15.906h-3.058l-3.04-4.436h-.971v4.436h-2.634V4.63h4.206c1.001 0 1.859.312 2.572.936.713.625 1.069 1.45 1.069 2.475 0 .636-.165 1.208-.495 1.715-.33.506-.742.877-1.237 1.113l3.588 5.037zm-4.49-7.865c0-.4-.138-.71-.415-.928a1.563 1.563 0 0 0-.998-.327h-1.166v2.528h1.166c.388 0 .721-.109.998-.327.277-.218.416-.534.416-.946z"/></g></svg>
